Newaita-dark/mimetypes/22/office-contact.svg

<svg height="22pt" viewBox="0 0 22 22" width="22pt" xmlns="http://www.w3.org/2000/svg" xmlns:xlink="http://www.w3.org/1999/xlink"><linearGradient id="a" gradientUnits="userSpaceOnUse" x1="11.3699116" x2="11.3699116" y1="19.27333515" y2="20.18292834324"><stop offset="0" stop-opacity=".27451"/><stop offset="1" stop-opacity="0"/></linearGradient><linearGradient id="b"><stop offset="0" stop-opacity=".313725"/><stop offset=".222222" stop-opacity=".27451"/><stop offset="1" stop-opacity="0"/></linearGradient><radialGradient id="c" cx="450.90894" cy="189.57936" gradientTransform="matrix(.00000012 -.0537161 -.0966889 -.00000007 34.020641 43.721792)" gradientUnits="userSpaceOnUse" r="21.166656" xlink:href="#b"/><radialGradient id="d" cx="450.90894" cy="189.57936" gradientTransform="matrix(-.00000012 .0537161 .0966889 .00000007 -12.645223 -5.175142)" gradientUnits="userSpaceOnUse" r="21.166656" xlink:href="#b"/><radialGradient id="e" cx="450.90894" cy="189.57936" gradientTransform="matrix(-.00000012 -.0537161 .0966889 -.00000007 -12.645223 43.721792)" gradientUnits="userSpaceOnUse" r="21.166656" xlink:href="#b"/><radialGradient id="f" cx="450.90894" cy="189.57936" gradientTransform="matrix(.00000012 .0537161 -.0966889 .00000007 34.020639 -5.175143)" gradientUnits="userSpaceOnUse" r="21.166656" xlink:href="#b"/><linearGradient id="g" gradientUnits="userSpaceOnUse" x1="10.687706" x2="10.687706" y1="19.27332442218" y2="1.99107551259"><stop offset="0" stop-color="#b0bec5"/><stop offset="1" stop-color="#cfd8dc"/></linearGradient><linearGradient id="h"><stop offset="0" stop-color="#78909c"/><stop offset="1" stop-color="#90a4ae"/></linearGradient><linearGradient id="i" gradientUnits="userSpaceOnUse" x1="8.342443" x2="8.342443" xlink:href="#h" y1="14.95277242218" y2="-2.32947648741"/><linearGradient id="j" gradientUnits="userSpaceOnUse" x1="370.41667" x2="370.41667" xlink:href="#h" y1="233.5" y2="-168.666668"/><linearGradient id="k" gradientUnits="userSpaceOnUse" x1="370.41667" x2="370.41667" xlink:href="#h" y1="233.49999" y2="-158.083334"/><linearGradient id="l" gradientUnits="userSpaceOnUse" x1="211.66665" x2="211.66665" xlink:href="#h" y1="233.500019" y2="-168.666651"/><linearGradient id="m" gradientUnits="userSpaceOnUse" x1="211.66665" x2="211.66665" xlink:href="#h" y1="233.500009" y2="-168.666661"/><linearGradient id="n" gradientUnits="userSpaceOnUse" x1="370.41665" x2="370.41665" xlink:href="#h" y1="233.500017" y2="-168.666653"/><linearGradient id="o" gradientUnits="userSpaceOnUse" x1="370.41665" x2="370.41665" xlink:href="#h" y1="233.500007" y2="-168.666663"/><path d="m5.457031 19.273438h10.460938v.910156h-10.460938zm0 0" fill="url(#a)"/><path d="m15.917969 19.273438h1.820312v-.910157h-1.820312zm0 0" fill="url(#c)"/><path d="m5.457031 19.273438h-1.820312v.910156h1.820312zm0 0" fill="url(#d)"/><path d="m5.457031 19.273438h-1.820312v-.910157h1.820312zm0 0" fill="url(#e)"/><path d="m15.917969 19.273438h1.820312v.910156h-1.820312zm0 0" fill="url(#f)"/><path d="m4.546875 1.992188c-.503906 0-.910156.40625-.910156.910156v15.460937c0 .03125.003906.0625.007812.09375.046875.460938.429688.816407.902344.816407h12.28125c.503906 0 .910156-.40625.910156-.910157v-15.460937c0-.503906-.40625-.910156-.910156-.910156zm0 0" fill="url(#g)"/><path d="m3.636719 18.011719v.351562c0 .503907.40625.910157.910156.910157h12.28125c.503906 0 .910156-.40625.910156-.910157v-.351562c0 .503906-.40625.910156-.910156.910156h-12.28125c-.503906 0-.910156-.40625-.910156-.910156zm0 0" fill-opacity=".235294"/><path d="m8.34375 3.582031c-.882812 0-1.59375.710938-1.59375 1.59375 0 .878907.710938 1.589844 1.59375 1.589844.878906 0 1.589844-.710937 1.589844-1.589844 0-.882812-.710938-1.59375-1.589844-1.59375zm-1.210938 3.785157c-1.289062.324218-2.203124 1.152343-2.203124 2.128906v.453125h6.824218v-.453125c0-.976563-.914062-1.804688-2.203125-2.128906-.359375.195312-.769531.308593-1.207031.308593-.441406 0-.851562-.113281-1.210938-.308593zm0 0" fill="url(#i)"/><path d="m4.546875 1.992188c-.503906 0-.910156.40625-.910156.910156v.453125c0-.503907.40625-.910157.910156-.910157h12.28125c.503906 0 .910156.40625.910156.910157v-.453125c0-.503906-.40625-.910156-.910156-.910156zm0 0" fill="#fff" fill-opacity=".392157"/><g stroke="#212121" stroke-linecap="round" stroke-linejoin="round"><path d="m399.90455 175.215911c-44.319318 0-80.049622 35.730304-80.049622 80.049623v1359.812895c0 2.748485.343561 5.49697.687121 8.245455 4.122728 40.540152 37.791668 71.804168 79.362501 71.804168h1080.15456c44.319318 0 80.049622-35.730304 80.049622-80.049623v-1359.812895c0-44.319319-35.730304-80.049623-80.049622-80.049623zm0 0" fill="none" stroke-width="11.338583" transform="scale(.0113699)"/><path d="m194.163277-131.644324c-20.543493 0-37.087368 16.543875-37.087368 37.087368 0 20.452592 16.543875 36.996467 37.087368 36.996467 20.452592 0 36.996467-16.543875 36.996467-36.996467 0-20.543493-16.543875-37.087368-36.996467-37.087368zm-28.179128 88.082498c-29.997135 7.544734-51.267831 26.815621-51.267831 49.540724v10.544447h158.803017v-10.544447c0-22.725103-21.270696-41.99599-51.267832-49.540724-8.362837 4.54502-17.907381 7.181132-28.088226 7.181132-10.271747 0-19.81629-2.636112-28.179128-7.181132zm0 0" fill="none" stroke-width="3" transform="matrix(.0429729 0 0 .0429729 0 9.239163)"/><path d="m280.427766-126.3721h95.26363c2.908813 0 5.272224 2.363411 5.272224 5.363124v10.544448c0 2.908813-2.363411 5.272224-5.272224 5.272224h-95.26363c-2.908813 0-5.272224-2.363411-5.272224-5.272224v-10.544448c0-2.999713 2.363411-5.363124 5.272224-5.363124zm0 0" fill="url(#j)" stroke-width="3" transform="matrix(.0429729 0 0 .0429729 0 9.239163)"/><path d="m280.427766-84.012509h95.26363c2.908813 0 5.272224 2.363411 5.272224 5.272224v10.635348c0 2.908813-2.363411 5.272224-5.272224 5.272224h-95.26363c-2.908813 0-5.272224-2.363411-5.272224-5.272224v-10.635348c0-2.908813 2.363411-5.272224 5.272224-5.272224zm0 0" fill="url(#k)" stroke-width="3" transform="matrix(.0429729 0 0 .0429729 0 9.239163)"/><path d="m121.715649 53.610713h95.263631c2.908813 0 5.272223 2.36341 5.272223 5.272223v10.544448c0 2.908813-2.36341 5.363124-5.272223 5.363124h-95.263631c-2.908813 0-5.272223-2.454311-5.272223-5.363124v-10.544448c0-2.908813 2.36341-5.272223 5.272223-5.272223zm0 0" fill="url(#l)" stroke-width="3" transform="matrix(.0429729 0 0 .0429729 0 9.239163)"/><path d="m121.715649 95.879403h95.263631c2.908813 0 5.272223 2.363411 5.272223 5.363125v10.544447c0 2.908813-2.36341 5.272224-5.272223 5.272224h-95.263631c-2.908813 0-5.272223-2.363411-5.272223-5.272224v-10.544447c0-2.999714 2.36341-5.363125 5.272223-5.363125zm0 0" fill="url(#m)" stroke-width="3" transform="matrix(.0429729 0 0 .0429729 0 9.239163)"/><path d="m280.427766 53.610713h95.26363c2.908813 0 5.272224 2.36341 5.272224 5.272223v10.544448c0 2.908813-2.363411 5.363124-5.272224 5.363124h-95.26363c-2.908813 0-5.272224-2.454311-5.272224-5.363124v-10.544448c0-2.908813 2.363411-5.272223 5.272224-5.272223zm0 0" fill="url(#n)" stroke-width="3" transform="matrix(.0429729 0 0 .0429729 0 9.239163)"/><path d="m280.427766 95.879403h95.26363c2.908813 0 5.272224 2.363411 5.272224 5.363125v10.544447c0 2.908813-2.363411 5.272224-5.272224 5.272224h-95.26363c-2.908813 0-5.272224-2.363411-5.272224-5.272224v-10.544447c0-2.999714 2.363411-5.363125 5.272224-5.363125zm0 0" fill="url(#o)" stroke-width="3" transform="matrix(.0429729 0 0 .0429729 0 9.239163)"/></g></svg>

<svg xmlns="http://www.w3.org/2000/svg" xmlns:xlink="http://www.w3.org/1999/xlink" width="22px" height="22px" viewBox="0 0 22 22" version="1.1">
<defs>
<linearGradient id="linear0" gradientUnits="userSpaceOnUse" x1="33.076088" y1="56.067867" x2="33.076088" y2="58.713955" gradientTransform="matrix(0.34375,0,0,0.34375,0,0)">
<stop offset="0" style="stop-color:rgb(0%,0%,0%);stop-opacity:0.27451;"/>
<stop offset="1" style="stop-color:rgb(0%,0%,0%);stop-opacity:0;"/>
</linearGradient>
<radialGradient id="radial0" gradientUnits="userSpaceOnUse" cx="450.908936" cy="189.579361" fx="450.908936" fy="189.579361" r="21.166656" gradientTransform="matrix(0.000000120312,-0.0537161,-0.096689,-0.00000006875,34.020642,43.721792)">
<stop offset="0" style="stop-color:rgb(0%,0%,0%);stop-opacity:0.313725;"/>
<stop offset="0.222222" style="stop-color:rgb(0%,0%,0%);stop-opacity:0.27451;"/>
<stop offset="1" style="stop-color:rgb(0%,0%,0%);stop-opacity:0;"/>
</radialGradient>
<radialGradient id="radial1" gradientUnits="userSpaceOnUse" cx="450.908936" cy="189.579361" fx="450.908936" fy="189.579361" r="21.166656" gradientTransform="matrix(-0.000000120312,0.0537161,0.096689,0.00000006875,-12.645223,-5.175143)">
<stop offset="0" style="stop-color:rgb(0%,0%,0%);stop-opacity:0.313725;"/>
<stop offset="0.222222" style="stop-color:rgb(0%,0%,0%);stop-opacity:0.27451;"/>
<stop offset="1" style="stop-color:rgb(0%,0%,0%);stop-opacity:0;"/>
</radialGradient>
<radialGradient id="radial2" gradientUnits="userSpaceOnUse" cx="450.908936" cy="189.579361" fx="450.908936" fy="189.579361" r="21.166656" gradientTransform="matrix(-0.000000120312,-0.0537161,0.096689,-0.00000006875,-12.645223,43.721792)">
<stop offset="0" style="stop-color:rgb(0%,0%,0%);stop-opacity:0.313725;"/>
<stop offset="0.222222" style="stop-color:rgb(0%,0%,0%);stop-opacity:0.27451;"/>
<stop offset="1" style="stop-color:rgb(0%,0%,0%);stop-opacity:0;"/>
</radialGradient>
<radialGradient id="radial3" gradientUnits="userSpaceOnUse" cx="450.908936" cy="189.579361" fx="450.908936" fy="189.579361" r="21.166656" gradientTransform="matrix(0.000000120312,0.0537161,-0.096689,0.00000006875,34.020639,-5.175143)">
<stop offset="0" style="stop-color:rgb(0%,0%,0%);stop-opacity:0.313725;"/>
<stop offset="0.222222" style="stop-color:rgb(0%,0%,0%);stop-opacity:0.27451;"/>
<stop offset="1" style="stop-color:rgb(0%,0%,0%);stop-opacity:0;"/>
</radialGradient>
<linearGradient id="linear1" gradientUnits="userSpaceOnUse" x1="31.091534" y1="56.067898" x2="31.091534" y2="5.792224" gradientTransform="matrix(0.34375,0,0,0.34375,0,0)">
<stop offset="0" style="stop-color:rgb(69.01961%,74.509805%,77.254903%);stop-opacity:1;"/>
<stop offset="1" style="stop-color:rgb(81.176472%,84.705883%,86.274511%);stop-opacity:1;"/>
</linearGradient>
<linearGradient id="linear2" gradientUnits="userSpaceOnUse" x1="24.26895" y1="43.49902" x2="24.26895" y2="-6.776654" gradientTransform="matrix(0.34375,0,0,0.34375,0,0)">
<stop offset="0" style="stop-color:rgb(47.058824%,56.470591%,61.176473%);stop-opacity:1;"/>
<stop offset="1" style="stop-color:rgb(56.470591%,64.313728%,68.235296%);stop-opacity:1;"/>
</linearGradient>
<linearGradient id="linear3" gradientUnits="userSpaceOnUse" x1="370.416656" y1="233.5" x2="370.416656" y2="-168.666672" >
<stop offset="0" style="stop-color:rgb(47.058824%,56.470591%,61.176473%);stop-opacity:1;"/>
<stop offset="1" style="stop-color:rgb(56.470591%,64.313728%,68.235296%);stop-opacity:1;"/>
</linearGradient>
<linearGradient id="linear4" gradientUnits="userSpaceOnUse" x1="370.416656" y1="233.499985" x2="370.416656" y2="-158.083328" >
<stop offset="0" style="stop-color:rgb(47.058824%,56.470591%,61.176473%);stop-opacity:1;"/>
<stop offset="1" style="stop-color:rgb(56.470591%,64.313728%,68.235296%);stop-opacity:1;"/>
</linearGradient>
<linearGradient id="linear5" gradientUnits="userSpaceOnUse" x1="211.666656" y1="233.500015" x2="211.666656" y2="-168.666656" >
<stop offset="0" style="stop-color:rgb(47.058824%,56.470591%,61.176473%);stop-opacity:1;"/>
<stop offset="1" style="stop-color:rgb(56.470591%,64.313728%,68.235296%);stop-opacity:1;"/>
</linearGradient>
<linearGradient id="linear6" gradientUnits="userSpaceOnUse" x1="211.666656" y1="233.500015" x2="211.666656" y2="-168.666656" >
<stop offset="0" style="stop-color:rgb(47.058824%,56.470591%,61.176473%);stop-opacity:1;"/>
<stop offset="1" style="stop-color:rgb(56.470591%,64.313728%,68.235296%);stop-opacity:1;"/>
</linearGradient>
<linearGradient id="linear7" gradientUnits="userSpaceOnUse" x1="370.416656" y1="233.500015" x2="370.416656" y2="-168.666656" >
<stop offset="0" style="stop-color:rgb(47.058824%,56.470591%,61.176473%);stop-opacity:1;"/>
<stop offset="1" style="stop-color:rgb(56.470591%,64.313728%,68.235296%);stop-opacity:1;"/>
</linearGradient>
<linearGradient id="linear8" gradientUnits="userSpaceOnUse" x1="370.416656" y1="233.5" x2="370.416656" y2="-168.666656" >
<stop offset="0" style="stop-color:rgb(47.058824%,56.470591%,61.176473%);stop-opacity:1;"/>
<stop offset="1" style="stop-color:rgb(56.470591%,64.313728%,68.235296%);stop-opacity:1;"/>
</linearGradient>
</defs>
<g id="surface1">
<path style=" stroke:none;fill-rule:nonzero;fill:url(#linear0);" d="M 5.457031 19.273438 L 15.917969 19.273438 L 15.917969 20.183594 L 5.457031 20.183594 Z M 5.457031 19.273438 "/>
<path style=" stroke:none;fill-rule:nonzero;fill:url(#radial0);" d="M 15.917969 19.273438 L 17.738281 19.273438 L 17.738281 18.363281 L 15.917969 18.363281 Z M 15.917969 19.273438 "/>
<path style=" stroke:none;fill-rule:nonzero;fill:url(#radial1);" d="M 5.457031 19.273438 L 3.640625 19.273438 L 3.640625 20.183594 L 5.457031 20.183594 Z M 5.457031 19.273438 "/>
<path style=" stroke:none;fill-rule:nonzero;fill:url(#radial2);" d="M 5.457031 19.273438 L 3.640625 19.273438 L 3.640625 18.363281 L 5.457031 18.363281 Z M 5.457031 19.273438 "/>
<path style=" stroke:none;fill-rule:nonzero;fill:url(#radial3);" d="M 15.917969 19.273438 L 17.738281 19.273438 L 17.738281 20.183594 L 15.917969 20.183594 Z M 15.917969 19.273438 "/>
<path style=" stroke:none;fill-rule:nonzero;fill:url(#linear1);" d="M 4.546875 1.992188 C 4.042969 1.992188 3.640625 2.398438 3.640625 2.898438 L 3.640625 18.363281 C 3.640625 18.394531 3.640625 18.425781 3.644531 18.457031 C 3.691406 18.917969 4.074219 19.273438 4.546875 19.273438 L 16.828125 19.273438 C 17.332031 19.273438 17.738281 18.867188 17.738281 18.363281 L 17.738281 2.898438 C 17.738281 2.398438 17.332031 1.992188 16.828125 1.992188 Z M 4.546875 1.992188 "/>
<path style=" stroke:none;fill-rule:nonzero;fill:rgb(0%,0%,0%);fill-opacity:0.235294;" d="M 3.640625 18.011719 L 3.640625 18.363281 C 3.640625 18.867188 4.042969 19.273438 4.546875 19.273438 L 16.828125 19.273438 C 17.332031 19.273438 17.738281 18.867188 17.738281 18.363281 L 17.738281 18.011719 C 17.738281 18.515625 17.332031 18.917969 16.828125 18.917969 L 4.546875 18.917969 C 4.042969 18.917969 3.640625 18.515625 3.640625 18.011719 Z M 3.640625 18.011719 "/>
<path style=" stroke:none;fill-rule:nonzero;fill:url(#linear2);" d="M 8.34375 3.582031 C 7.460938 3.582031 6.75 4.292969 6.75 5.175781 C 6.75 6.054688 7.460938 6.765625 8.34375 6.765625 C 9.226562 6.765625 9.933594 6.054688 9.933594 5.175781 C 9.933594 4.292969 9.226562 3.582031 8.34375 3.582031 Z M 7.132812 7.367188 C 5.84375 7.691406 4.933594 8.519531 4.933594 9.496094 L 4.933594 9.949219 L 11.753906 9.949219 L 11.753906 9.496094 C 11.753906 8.519531 10.839844 7.691406 9.550781 7.367188 C 9.191406 7.5625 8.78125 7.675781 8.34375 7.675781 C 7.902344 7.675781 7.492188 7.5625 7.132812 7.367188 Z M 7.132812 7.367188 "/>
<path style=" stroke:none;fill-rule:nonzero;fill:rgb(100%,100%,100%);fill-opacity:0.392157;" d="M 4.546875 1.992188 C 4.042969 1.992188 3.640625 2.398438 3.640625 2.898438 L 3.640625 3.355469 C 3.640625 2.851562 4.042969 2.445312 4.546875 2.445312 L 16.828125 2.445312 C 17.332031 2.445312 17.738281 2.851562 17.738281 3.355469 L 17.738281 2.898438 C 17.738281 2.398438 17.332031 1.992188 16.828125 1.992188 Z M 4.546875 1.992188 "/>
<path style="fill:none;stroke-width:11.338583;stroke-linecap:round;stroke-linejoin:round;stroke:rgb(12.941177%,12.941177%,12.941177%);stroke-opacity:1;stroke-miterlimit:4;" d="M 399.904242 175.215776 C 355.584958 175.215776 320.198242 210.946052 320.198242 255.265337 L 320.198242 1615.077185 C 320.198242 1617.825667 320.198242 1620.57415 320.541802 1623.322633 C 324.664527 1663.862754 358.33344 1695.126745 399.904242 1695.126745 L 1480.057969 1695.126745 C 1524.377253 1695.126745 1560.107529 1659.396469 1560.107529 1615.077185 L 1560.107529 255.265337 C 1560.107529 210.946052 1524.377253 175.215776 1480.057969 175.215776 Z M 399.904242 175.215776 " transform="matrix(0.0113699,0,0,0.0113699,0,0)"/>
<path style="fill:none;stroke-width:3;stroke-linecap:round;stroke-linejoin:round;stroke:rgb(12.941177%,12.941177%,12.941177%);stroke-opacity:1;stroke-miterlimit:4;" d="M 194.163186 -131.644254 C 173.619702 -131.644254 157.075836 -115.100387 157.075836 -94.556904 C 157.075836 -74.104321 173.619702 -57.560454 194.163186 -57.560454 C 214.706669 -57.560454 231.159635 -74.104321 231.159635 -94.556904 C 231.159635 -115.100387 214.706669 -131.644254 194.163186 -131.644254 Z M 165.984072 -43.561797 C 135.98695 -36.017067 114.807165 -16.746189 114.807165 5.978903 L 114.807165 16.523346 L 273.519207 16.523346 L 273.519207 5.978903 C 273.519207 -16.746189 252.248521 -36.017067 222.251399 -43.561797 C 213.888565 -39.016779 204.344027 -36.380668 194.163186 -36.380668 C 183.891444 -36.380668 174.346905 -39.016779 165.984072 -43.561797 Z M 165.984072 -43.561797 " transform="matrix(0.0429729,0,0,0.0429729,0,9.239163)"/>
<path style="fill-rule:nonzero;fill:url(#linear3);stroke-width:3;stroke-linecap:round;stroke-linejoin:round;stroke:rgb(12.941177%,12.941177%,12.941177%);stroke-opacity:1;stroke-miterlimit:4;" d="M 280.518535 -126.281132 L 375.69122 -126.281132 C 378.600032 -126.281132 380.963441 -124.008623 380.963441 -121.008911 L 380.963441 -110.464468 C 380.963441 -107.555656 378.600032 -105.192247 375.69122 -105.192247 L 280.518535 -105.192247 C 277.518823 -105.192247 275.155413 -107.555656 275.155413 -110.464468 L 275.155413 -121.008911 C 275.155413 -124.008623 277.518823 -126.281132 280.518535 -126.281132 Z M 280.518535 -126.281132 " transform="matrix(0.0429729,0,0,0.0429729,0,9.239163)"/>
<path style="fill-rule:nonzero;fill:url(#linear4);stroke-width:3;stroke-linecap:round;stroke-linejoin:round;stroke:rgb(12.941177%,12.941177%,12.941177%);stroke-opacity:1;stroke-miterlimit:4;" d="M 280.518535 -84.012461 L 375.69122 -84.012461 C 378.600032 -84.012461 380.963441 -81.649051 380.963441 -78.74024 L 380.963441 -68.104897 C 380.963441 -65.196085 378.600032 -62.832675 375.69122 -62.832675 L 280.518535 -62.832675 C 277.518823 -62.832675 275.155413 -65.196085 275.155413 -68.104897 L 275.155413 -78.74024 C 275.155413 -81.649051 277.518823 -84.012461 280.518535 -84.012461 Z M 280.518535 -84.012461 " transform="matrix(0.0429729,0,0,0.0429729,0,9.239163)"/>
<path style="fill-rule:nonzero;fill:url(#linear5);stroke-width:3;stroke-linecap:round;stroke-linejoin:round;stroke:rgb(12.941177%,12.941177%,12.941177%);stroke-opacity:1;stroke-miterlimit:4;" d="M 121.715592 53.610696 L 216.979178 53.610696 C 219.88799 53.610696 222.251399 55.974105 222.251399 58.882917 L 222.251399 69.51826 C 222.251399 72.336172 219.88799 74.790482 216.979178 74.790482 L 121.715592 74.790482 C 118.806781 74.790482 116.443371 72.336172 116.443371 69.51826 L 116.443371 58.882917 C 116.443371 55.974105 118.806781 53.610696 121.715592 53.610696 Z M 121.715592 53.610696 " transform="matrix(0.0429729,0,0,0.0429729,0,9.239163)"/>
<path style="fill-rule:nonzero;fill:url(#linear6);stroke-width:3;stroke-linecap:round;stroke-linejoin:round;stroke:rgb(12.941177%,12.941177%,12.941177%);stroke-opacity:1;stroke-miterlimit:4;" d="M 121.715592 95.879367 L 216.979178 95.879367 C 219.88799 95.879367 222.251399 98.242776 222.251399 101.242489 L 222.251399 111.786931 C 222.251399 114.695743 219.88799 117.059153 216.979178 117.059153 L 121.715592 117.059153 C 118.806781 117.059153 116.443371 114.695743 116.443371 111.786931 L 116.443371 101.242489 C 116.443371 98.242776 118.806781 95.879367 121.715592 95.879367 Z M 121.715592 95.879367 " transform="matrix(0.0429729,0,0,0.0429729,0,9.239163)"/>
<path style="fill-rule:nonzero;fill:url(#linear7);stroke-width:3;stroke-linecap:round;stroke-linejoin:round;stroke:rgb(12.941177%,12.941177%,12.941177%);stroke-opacity:1;stroke-miterlimit:4;" d="M 280.518535 53.610696 L 375.69122 53.610696 C 378.600032 53.610696 380.963441 55.974105 380.963441 58.882917 L 380.963441 69.51826 C 380.963441 72.336172 378.600032 74.790482 375.69122 74.790482 L 280.518535 74.790482 C 277.518823 74.790482 275.155413 72.336172 275.155413 69.51826 L 275.155413 58.882917 C 275.155413 55.974105 277.518823 53.610696 280.518535 53.610696 Z M 280.518535 53.610696 " transform="matrix(0.0429729,0,0,0.0429729,0,9.239163)"/>
<path style="fill-rule:nonzero;fill:url(#linear8);stroke-width:3;stroke-linecap:round;stroke-linejoin:round;stroke:rgb(12.941177%,12.941177%,12.941177%);stroke-opacity:1;stroke-miterlimit:4;" d="M 280.518535 95.879367 L 375.69122 95.879367 C 378.600032 95.879367 380.963441 98.242776 380.963441 101.242489 L 380.963441 111.786931 C 380.963441 114.695743 378.600032 117.059153 375.69122 117.059153 L 280.518535 117.059153 C 277.518823 117.059153 275.155413 114.695743 275.155413 111.786931 L 275.155413 101.242489 C 275.155413 98.242776 277.518823 95.879367 280.518535 95.879367 Z M 280.518535 95.879367 " transform="matrix(0.0429729,0,0,0.0429729,0,9.239163)"/>
</g>
</svg>
